static/fa/svgs/solid/jar.svg

<svg xmlns="http://www.w3.org/2000/svg" viewBox="0 0 320 512"><!--! Font Awesome Free 6.1.1 by @fontawesome - https://fontawesome.com License - https://fontawesome.com/license/free (Icons: CC BY 4.0, Fonts: SIL OFL 1.1, Code: MIT License) Copyright 2022 Fonticons, Inc. --><path d="M32 32C32 14.33 46.33 0 64 0H256C273.7 0 288 14.33 288 32C288 49.67 273.7 64 256 64H64C46.33 64 32 49.67 32 32zM0 160C0 124.7 28.65 96 64 96H256C291.3 96 320 124.7 320 160V448C320 483.3 291.3 512 256 512H64C28.65 512 0 483.3 0 448V160zM256 224H64V384H256V224z"/></svg>

<svg xmlns="http://www.w3.org/2000/svg" viewBox="0 0 320 512"><!--! Font Awesome Free 6.1.1 by @fontawesome - https://fontawesome.com License - https://fontawesome.com/license/free (Icons: CC BY 4.0, Fonts: SIL OFL 1.1, Code: MIT License) Copyright 2022 Fonticons, Inc.--><path d="M32 32C32 14.33 46.33 0 64 0h192c17.7 0 32 14.33 32 32s-14.3 32-32 32H64c-17.67 0-32-14.33-32-32zM0 160c0-35.3 28.65-64 64-64h192c35.3 0 64 28.7 64 64v288c0 35.3-28.7 64-64 64H64c-35.35 0-64-28.7-64-64V160zm256 64H64v160h192V224z"/></svg>
